X: 404
T: The Ladds of Dunce
P: Longways for as many as will
%R: jig
B: "The Dancing-Master" printed by John Walsh, London
S: 6: CCDM1 http://imslp.org/wiki/The_Compleat_Country_Dancing-Master_(Various) V.1 p.?? #5
Z: 2012-2013 John Chambers <jc:trillian.mit.edu>
N: 2nd part has initial repeat but no final repeat.
M: 6/4
L: 1/8
K: G
% - - - - - - - - - - - - - - - - - - - - - - - - -
B2 |\
B3DD2 D2F2D2 | D2F2D2 TB4A2 | (BABc)d2 A2F2A2 | B2E2E2 E4B2 |\
B3DD2 D2F2D2 | D2F2D2 TB4A2 | (BABc)d2 A2F2A2 | B2D2D2 D4 :|
|: g2 |\
Tf3ed2 d4e2 | (fefg)a2 TB4A2 | (BABc)d2 A2F2A2 | B2E2E2 E2g2 |\
Tf3ed2 d4e2 | (fefg)a2 TB4A2 | (BABc)d2 A2F2A2 | B2D2D2 D4 :|
% - - - - - - - - - - - - - - - - - - - - - - - - -
%%begintext align
%% The 1st Cu. take Hands, slip down between the 2d and 3d Cu. foot it then lead back again and cast off .|
%% The 2d Cu does the same :|
%% The 1st Man leads out the 2d Wo. 1st Wo. leads out the 2d Man at the same time and then turn your Partners .|
%% The 1st and 2d Men leads out the two We. doing the same at the same Time turn your Partners as before :#:
%% The 1st Man goes Back to Back (or foot it) with the 2d Wo. and turn her .|
%% Their Partners does the same :|
%% The 1st Cu cross over and half figure thro' the 2d .|
%% First and 2d Cu. Right and Left quite round.
%%endtext

%%sep 1 1 500
%%sep 1 1 500
